icons/home_alt.svg

<svg width="48" height="48" viewBox="0 0 48 48" fill="none" xmlns="http://www.w3.org/2000/svg">
<path fill-rule="evenodd" clip-rule="evenodd" d="M41.7083 25.7942L24.0579 8.08594L6.29405 25.7919C5.90289 26.1818 5.90185 26.8149 6.29174 27.2061C6.68163 27.5973 7.31479 27.5983 7.70595 27.2084L10 24.9218V39C10 39.5523 10.4477 40 11 40H20C20.5523 40 21 39.5523 21 39V30.2593C21 29.707 21.4477 29.2593 22 29.2593H26C26.5523 29.2593 27 29.707 27 30.2593V39C27 39.5523 27.4477 40 28 40H37C37.5523 40 38 39.5523 38 39V24.9068L40.2917 27.2061C40.6816 27.5973 41.3148 27.5983 41.7059 27.2084C42.0971 26.8185 42.0981 26.1854 41.7083 25.7942ZM36 22.9003L24.0533 10.9144L12 22.9284V38H19V30.2593C19 28.6024 20.3431 27.2593 22 27.2593H26C27.6569 27.2593 29 28.6024 29 30.2593V38H36V22.9003Z" fill="black"/>
</svg>

<svg
  xmlns="http://www.w3.org/2000/svg"
  width="24"
  height="24"
  viewBox="0 0 24 24"
  fill="none"
  stroke="currentColor"
  stroke-width="2"
  stroke-linecap="round"
  stroke-linejoin="round"
>
  <path
    fill-rule="evenodd"
    d="M41.708 25.794 24.058 8.086 6.294 25.792a1 1 0 1 0 1.412 1.416L10 24.922V39a1 1 0 0 0 1 1h9a1 1 0 0 0 1-1v-8.74a1 1 0 0 1 1-1h4a1 1 0 0 1 1 1V39a1 1 0 0 0 1 1h9a1 1 0 0 0 1-1V24.907l2.292 2.3a1 1 0 1 0 1.416-1.413M36 22.9 24.053 10.914 12 22.928V38h7v-7.74a3 3 0 0 1 3-3h4a3 3 0 0 1 3 3V38h7z"
    clip-rule="evenodd"
  />
</svg>
